X:1
T:I Have Decided to Follow Jesus
T:I Have Decided to Follow Jesus
%%score ( 1 2 ) ( 3 4 )
L:1/8
M:4/4
K:C
V:1 treble nm="Piano" snm="Pno."
V:2 treble 
V:3 bass nm="Piano" snm="Pno."
V:4 bass 
V:1
 C CE | G2 G3 G AG | E2 C2 z c cc | c2 c3 c dc | A2 G2 z C CE | G2 G3 G AG | E2 C2 z G AG | %7
w: 1~I have de-|ci- ded to fol- low|Je- sus, I have de-|ci- ded to fol- low|Je- sus, I have de-|ci- ded to fol- low|Je- sus no turn- ing|
w: 2~The world be-|hind me, the cross be-|fore me, the world be-|hind me, the cross be-|fore me, the world be-|hind me, the cross be-|fore me no tur- ning|
w: 3~Though none go|with me, I still will|fol- low, though none go|with me, I still will|fol- low, though none go|with me, I still will|fol- low, no tur- ning|
w: 4~Will you de-|cide now to fol- low|Je- sus? Will you de-|cide now to fol- low|Je- sus? Will you de-|cide now to fol- low|Je- sus? no tur- ning|
 E4- EC DD | C4- C |] %9
w: back, _ no tur- ning|back. *|
w: back, _ no tur- ning|back. *|
w: back, _ no tur- ning|back. *|
w: back, _ no tur- ning|back. *|
V:2
 x3 | C8 | C4 x2 E2 | F8 | F2 E2 x4 | C2 C6 | C4 x4 | C6 G,2 | C4- C |] %9
V:3
 z E,G, | E,6 F,E, | G,2 E,2 z2 [C,_B,]2 | A,6 ^G,A, | [F,C]2 [C,C]2 z2 E,G, | E,2 E,4 ^D,E, | %6
 G,2 E,2 z E,F,E, | [G,,G,]4 [A,,^F,]2 [B,,=F,]2 | [C,E,]4- [C,E,] |] %9
V:4
 x C,2 | C,8 | C,4 x4 | F,8 | x6 C,2 | C,2 C,6 | C,4 x4 | x8 | x5 |] %9

